X: 34192
T: Reel Of Rio, The
R: reel
M: 4/4
K: Gmajor
DEGA BABd|eg~g2 agef|gede gedB|cABA GE~E2|
DEGA BABd|eg~g2 agef|gede gedB|1 cABA G3E:|2 cABA G2 Bc||
dg~g2 ag~g2|bgag edBd|eBBA GABd|gedB ABGE|
DEGA BABd|eg~g2 agef|gede gedB|1 cABA G2Bc:|2 cABA G3E||

